teeny/outline/subscript.svg

<svg width="15" height="15" viewBox="0 0 15 15" fill="none" xmlns="http://www.w3.org/2000/svg">
<path d="M12.5 14.5L12.1464 14.1464C12.0034 14.2894 11.9607 14.5045 12.0381 14.6913C12.1155 14.8782 12.2978 15 12.5 15V14.5ZM15 14H12.5V15H15V14ZM12.8536 14.8536L14.6464 13.0607L13.9393 12.3536L12.1464 14.1464L12.8536 14.8536ZM13.7929 11H13.5V12H13.7929V11ZM13.5 11C12.6716 11 12 11.6716 12 12.5H13C13 12.2239 13.2239 12 13.5 12V11ZM15 12.2071C15 11.5404 14.4596 11 13.7929 11V12C13.9073 12 14 12.0927 14 12.2071H15ZM14.6464 13.0607C14.8728 12.8343 15 12.5273 15 12.2071H14C14 12.262 13.9782 12.3147 13.9393 12.3536L14.6464 13.0607ZM1.9 13.8L10.9 1.8L10.1 1.2L1.1 13.2L1.9 13.8ZM1.1 1.8L10.1 13.8L10.9 13.2L1.9 1.2L1.1 1.8Z" fill="black"/>
</svg>

<svg viewBox="0 0 15 15" xmlns="http://www.w3.org/2000/svg"><path d="M12.5 14.5l-.36-.36c-.15.14-.19.35-.11.54 .07.18.25.3.46.3v-.5ZM15 14h-2.5v1H15v-1Zm-2.15.85l1.79-1.8 -.71-.71 -1.8 1.79 .7.7Zm.93-3.86h-.3v1h.29v-1Zm-.3 0c-.83 0-1.5.67-1.5 1.5h1c0-.28.22-.5.5-.5v-1Zm1.5 1.2c0-.67-.55-1.21-1.21-1.21v1c.11 0 .2.09.2.2h1Zm-.36.85c.22-.23.35-.54.35-.86h-1c0 .05-.03.1-.07.14l.7.7Zm-12.75.73l9-12 -.8-.6 -9 12 .8.6Zm-.8-12l9 12 .8-.6 -9-12 -.8.6Z"/></svg>
